X: 19639
T: Jean Denny's
R: reel
M: 4/4
K: Amajor
|:AEEE AFEF|AdcA dcAB|c2 Bc ABBA|ffff fecB|
AEEE AFEF|AdcA dcAd|ffff fece|1 ecBc A3A:|2 ecBc A3a||
|:aece Bece|aeca f3e|f2 ff fece|ecAc B3a|
aece Bece|aeca f3e|f2 ff fece|ecBc A3f:|
|:afcf afcf|geBe geBe|ffff fece|f2 ff fecB|
AEEE AFEF|AdcA dcAd|ffff fece|1 ecBc A3f:|2 ecBc A3B:|

